src/Icon/svgs/confetti.svg

<svg width="24" height="24" viewBox="0 0 24 24" fill="none" xmlns="http://www.w3.org/2000/svg">
<path fill-rule="evenodd" clip-rule="evenodd" d="M20.5002 14.9977C19.6719 14.9977 19.0004 14.3262 19.0004 13.4979C19.0004 12.6696 19.6719 11.9981 20.5002 11.9981C21.3285 11.9981 22 12.6696 22 13.4979C22 14.3262 21.3285 14.9977 20.5002 14.9977ZM18.0004 4.99943C17.4482 4.99943 17.0006 4.55178 17.0006 3.99957C17.0006 3.44737 17.4482 2.99972 18.0004 2.99972C18.5526 2.99972 19.0003 3.44737 19.0003 3.99957C19.0003 4.55178 18.5526 4.99943 18.0004 4.99943ZM3.38727 21.9202C2.56315 22.2636 1.73638 21.4369 2.07976 20.6127L7.07905 8.61444C7.35277 7.9575 8.20576 7.78876 8.709 8.292L15.708 15.291C16.2112 15.7942 16.0425 16.6472 15.3856 16.921L3.38727 21.9202ZM15.7079 10.7056C15.3174 11.0961 14.6843 11.0961 14.2938 10.7056C13.9034 10.3151 13.9034 9.68204 14.2938 9.29157L16.2936 7.29185C16.7761 6.80928 17.5897 6.9413 17.8949 7.55171L18.2743 8.31065L19.2931 7.29185C19.6836 6.90138 20.3167 6.90138 20.7071 7.29185C21.0976 7.68232 21.0976 8.3154 20.7071 8.70587L18.7074 10.7056C18.2249 11.1882 17.4113 11.0561 17.1061 10.4457L16.7267 9.68678L15.7079 10.7056ZM12.0013 5.99929V6.999C12.0013 7.55121 11.5536 7.99886 11.0014 7.99886C10.4492 7.99886 10.0016 7.55121 10.0016 6.999V4.99943C10.0016 4.44722 10.4492 3.99957 11.0014 3.99957H12.0013V2.99986C12.0013 2.44765 12.4489 2 13.0011 2C13.5533 2 14.001 2.44765 14.001 2.99986V4.99943C14.001 5.55164 13.5533 5.99929 13.0011 5.99929H12.0013Z" fill="#1B1C1D"/>
</svg>

<svg xmlns="http://www.w3.org/2000/svg" width="24" height="24" fill="none"  xmlns:v="https://vecta.io/nano"><path fill-rule="evenodd" d="M20.5 14.998a1.5 1.5 0 0 1-1.5-1.5 1.5 1.5 0 0 1 1.5-1.5 1.5 1.5 0 0 1 1.5 1.5 1.5 1.5 0 0 1-1.5 1.5zM18 4.999a1 1 0 0 1-1-1 1 1 0 0 1 1-1 1 1 0 0 1 1 1 1 1 0 0 1-1 1zM3.387 21.92c-.824.343-1.651-.483-1.308-1.308L7.079 8.614a1 1 0 0 1 1.63-.322l6.999 6.999a1 1 0 0 1-.322 1.63L3.387 21.92zm12.321-11.215a1 1 0 0 1-1.414-1.414l2-2a1 1 0 0 1 1.601.26l.379.759 1.019-1.019a1 1 0 0 1 1.414 1.414l-2 2a1 1 0 0 1-1.601-.26l-.379-.759-1.019 1.019zm-3.707-4.706v1a1 1 0 0 1-1 1 1 1 0 0 1-1-1v-2a1 1 0 0 1 1-1h1V3a1 1 0 0 1 1-1 1 1 0 0 1 1 1v2a1 1 0 0 1-1 1h-1z" fill="#1b1c1d"/></svg>
